X:64
M:C|
L:1/8
K:C
cded cAGc|AcGc FcEc|dBcE D2C||f|efga gecg|afeg edcG|A/A/A ag a2 c'2|
ecfe d2 cf|efga gecg|afdg edcA|AcGc FcEc|dBcE D2C||

